src/components/layout/Header/cart.svg

<svg fill-rule="evenodd" fill="white"  width="19" height="23" viewBox="0 0 19 23" xmlns="http://www.w3.org/2000/svg">
    <path fill="" d="M9.72182 0C10.0481 0.076412 10.3862 0.129313 10.7065 0.235114C12.5512 0.864043 13.7198 2.39816 13.8443 4.33197C13.8443 4.36724 13.8562 4.4025 13.8621 4.47304C13.9452 4.47304 14.0282 4.47304 14.1053 4.47304C14.8883 4.47304 15.6772 4.47304 16.4602 4.47304C16.9466 4.47304 17.1839 4.68464 17.2313 5.16075C17.3915 6.9241 17.5457 8.69333 17.6999 10.4567C17.8898 12.5551 18.0796 14.6593 18.2694 16.7577C18.3643 17.7864 18.4889 18.815 18.5363 19.8436C18.5838 20.9016 18.0796 21.7128 17.2313 22.3182C16.5611 22.7943 15.7959 22.9882 14.9714 22.9882C12.0055 22.9824 9.03374 22.9882 6.0679 22.9882C5.13662 22.9882 4.21128 23.0176 3.28 22.9765C2.10553 22.9295 1.13867 22.4475 0.456521 21.4718C-0.0120822 20.8017 -0.0595357 20.0493 0.0235079 19.2617C0.195527 17.6335 0.326024 15.9995 0.468385 14.3654C0.610745 12.7608 0.759037 11.162 0.901398 9.55737C1.03189 8.13494 1.15646 6.7125 1.28103 5.29006C1.28696 5.2254 1.28696 5.15487 1.29882 5.09021C1.35814 4.67876 1.58947 4.47304 2.01656 4.46716C2.8114 4.46128 3.60032 4.46716 4.39516 4.46716C4.48414 4.46716 4.57311 4.46716 4.66802 4.46716C4.70361 3.7677 4.84004 3.12113 5.15442 2.52159C5.90181 1.12855 7.05849 0.305648 8.62446 0.0470227C8.6897 0.0352671 8.75495 0.0176335 8.8202 0C9.11679 0 9.4193 0 9.72182 0ZM4.68581 5.76029C3.95622 5.76029 3.25628 5.76029 2.54448 5.76029C2.53854 5.80731 2.52668 5.84258 2.52668 5.88372C2.34873 7.89394 2.16485 9.91004 1.9869 11.9203C1.75556 14.5418 1.52422 17.1692 1.28696 19.7907C1.24544 20.2727 1.40559 20.6724 1.7259 21.0192C2.22416 21.5482 2.86479 21.7304 3.57066 21.7304C7.36694 21.7363 11.1691 21.7363 14.9654 21.7304C15.3925 21.7304 15.8018 21.6599 16.1933 21.4718C16.8161 21.172 17.3618 20.5313 17.2551 19.7084C17.1898 19.2147 17.1602 18.7092 17.1186 18.2096C16.9644 16.4462 16.8043 14.677 16.65 12.9136C16.4721 10.9269 16.2941 8.93432 16.1162 6.94761C16.0806 6.55379 16.0391 6.15998 16.0035 5.77204C15.2798 5.77204 14.5739 5.77204 13.8562 5.77204C13.8562 5.85433 13.8562 5.92487 13.8562 5.98952C13.8562 6.55967 13.8621 7.12982 13.8503 7.6941C13.8443 8.05264 13.5596 8.31715 13.2097 8.31127C12.8715 8.30539 12.5987 8.04677 12.5809 7.69997C12.575 7.58242 12.5809 7.45898 12.5809 7.34143C12.5809 6.8183 12.5809 6.29517 12.5809 5.77204C10.3624 5.77204 8.17365 5.77204 5.96706 5.77204C5.96706 5.83082 5.96706 5.87784 5.96706 5.91899C5.96706 6.50089 5.97299 7.08868 5.96706 7.67059C5.96113 8.04677 5.68234 8.31715 5.32644 8.31127C4.97647 8.31127 4.70954 8.04089 4.69768 7.68234C4.69175 7.57066 4.69768 7.45898 4.69768 7.3473C4.68581 6.8183 4.68581 6.29517 4.68581 5.76029ZM12.575 4.46128C12.4919 3.23281 11.9521 2.29236 10.8844 1.6987C9.72775 1.05801 8.55921 1.10503 7.44998 1.82213C6.50684 2.43343 6.02638 3.33274 5.96706 4.46128C8.17958 4.46128 10.3684 4.46128 12.575 4.46128Z" />
</svg>

<svg fill-rule="evenodd" fill="#fff" width="19" height="23" xmlns="http://www.w3.org/2000/svg"><path d="M9.722 0c.326.076.664.13.985.235 1.844.629 3.013 2.163 3.137 4.097 0 .035.012.07.018.141h2.598c.487 0 .724.212.771.688.16 1.763.315 3.532.469 5.296l.57 6.3c.094 1.03.219 2.058.266 3.087.048 1.058-.456 1.869-1.305 2.474-.67.476-1.435.67-2.26.67-2.966-.006-5.937 0-8.903 0-.931 0-1.857.03-2.788-.011-1.174-.047-2.141-.53-2.823-1.505-.47-.67-.517-1.423-.433-2.21.172-1.628.302-3.263.444-4.897.143-1.604.291-3.203.433-4.808.13-1.422.255-2.845.38-4.267.006-.065.006-.135.018-.2.06-.411.29-.617.718-.623.794-.006 1.583 0 2.378 0h.273c.036-.7.172-1.346.486-1.945C5.902 1.129 7.058.306 8.624.047c.066-.012.13-.03.196-.047h.902ZM4.686 5.76H2.544c-.005.047-.017.083-.017.124-.178 2.01-.362 4.026-.54 6.036-.231 2.622-.463 5.25-.7 7.87-.042.483.119.882.439 1.23.498.528 1.139.71 1.845.71 3.796.006 7.598.006 11.394 0 .428 0 .837-.07 1.228-.258.623-.3 1.169-.94 1.062-1.764-.065-.493-.095-.999-.136-1.498-.155-1.764-.315-3.533-.469-5.296l-.534-5.966c-.035-.394-.077-.788-.113-1.176h-2.147v.218c0 .57.006 1.14-.006 1.704a.62.62 0 0 1-.64.617.636.636 0 0 1-.63-.611c-.005-.118 0-.241 0-.359V5.772H5.968v.147c0 .582.006 1.17 0 1.752-.006.376-.285.646-.64.64-.35 0-.617-.27-.63-.629-.005-.111 0-.223 0-.335-.011-.529-.011-1.052-.011-1.587Zm7.889-1.299c-.083-1.228-.623-2.169-1.69-2.762-1.157-.641-2.326-.594-3.435.123-.943.611-1.424 1.51-1.483 2.64h6.608Z"/></svg>
